icons/discussion-duplicate-16.svg

<svg width="16" height="16" viewBox="0 0 16 16" fill="none" xmlns="http://www.w3.org/2000/svg">
<path d="M2.5 3.80469C2.5 3.66662 2.61193 3.55469 2.75 3.55469H11.25C11.3881 3.55469 11.5 3.66662 11.5 3.80469V6C11.5 6.41421 11.8358 6.75 12.25 6.75C12.6642 6.75 13 6.41421 13 6V3.80469C13 2.83819 12.2165 2.05469 11.25 2.05469H2.75C1.7835 2.05469 1 2.83819 1 3.80469V9.53906C1 10.5056 1.7835 11.2891 2.75 11.2891H3V12.9186C3 13.7273 3.65553 14.3828 4.46417 14.3828C4.84033 14.3828 5.20206 14.238 5.47436 13.9785L6.51745 12.9843C6.81729 12.6985 6.82868 12.2238 6.5429 11.924C6.25712 11.6241 5.78238 11.6127 5.48255 11.8985L4.5 12.835V10.5391C4.5 10.1248 4.16421 9.78906 3.75 9.78906H2.75C2.61193 9.78906 2.5 9.67713 2.5 9.53906V3.80469Z" fill="black"/>
<path d="M13.1241 10.3759C13.417 10.6688 13.417 11.1437 13.1241 11.4366L11.4366 13.1241C11.1437 13.417 10.6688 13.417 10.3759 13.1241C10.083 12.8312 10.083 12.3563 10.3759 12.0634L12.0634 10.3759C12.3563 10.083 12.8312 10.083 13.1241 10.3759Z" fill="black"/>
<path fill-rule="evenodd" clip-rule="evenodd" d="M7.5 11.75C7.5 9.40279 9.40279 7.5 11.75 7.5C14.0972 7.5 16 9.40279 16 11.75C16 14.0972 14.0972 16 11.75 16C9.40279 16 7.5 14.0972 7.5 11.75ZM11.75 9C10.2312 9 9 10.2312 9 11.75C9 13.2688 10.2312 14.5 11.75 14.5C13.2688 14.5 14.5 13.2688 14.5 11.75C14.5 10.2312 13.2688 9 11.75 9Z" fill="black"/>
</svg>

<svg xmlns="http://www.w3.org/2000/svg" width="16" height="16" viewBox="0 0 16 16"><path d="M2.5 3.805a.25.25 0 0 1 .25-.25h8.5a.25.25 0 0 1 .25.25V6A.75.75 0 0 0 13 6V3.805a1.75 1.75 0 0 0-1.75-1.75h-8.5A1.75 1.75 0 0 0 1 3.805v5.734c0 .967.784 1.75 1.75 1.75H3v1.63a1.465 1.465 0 0 0 2.474 1.06l1.043-.995a.75.75 0 1 0-1.034-1.085l-.983.936v-2.296a.75.75 0 0 0-.75-.75h-1a.25.25 0 0 1-.25-.25V3.805Zm10.624 6.571a.75.75 0 0 1 0 1.061l-1.687 1.687a.75.75 0 1 1-1.061-1.061l1.687-1.687a.75.75 0 0 1 1.061 0Z"/><path d="M7.5 11.75a4.25 4.25 0 1 1 8.5 0 4.25 4.25 0 0 1-8.5 0ZM11.75 9a2.75 2.75 0 1 0 0 5.5 2.75 2.75 0 0 0 0-5.5Z"/></svg>
